svg/regular/bx-barcode-reader.svg

<svg xmlns="http://www.w3.org/2000/svg" width="24" height="24"><path d="M5 7h2v10H5zm9 0h1v10h-1zm-4 0h3v10h-3zM8 7h1v10H8zm8 0h3v10h-3z"/><path d="M4 5h4V3H4c-1.103 0-2 .897-2 2v4h2V5zm0 16h4v-2H4v-4H2v4c0 1.103.897 2 2 2zM20 3h-4v2h4v4h2V5c0-1.103-.897-2-2-2zm0 16h-4v2h4c1.103 0 2-.897 2-2v-4h-2v4z"/></svg>

<svg xmlns="http://www.w3.org/2000/svg" width="24" height="24" viewBox="0 0 24 24"><path d="M5 7H7V17H5zM14 7H15V17H14zM10 7H13V17H10zM8 7H9V17H8zM16 7H19V17H16z"/><path d="M4 5h4V3H4C2.897 3 2 3.897 2 5v4h2V5zM4 21h4v-2H4v-4H2v4C2 20.103 2.897 21 4 21zM20 3h-4v2h4v4h2V5C22 3.897 21.103 3 20 3zM20 19h-4v2h4c1.103 0 2-.897 2-2v-4h-2V19z"/></svg>
